img/arrow-back.svg

<svg fill="none" height="20" viewBox="0 0 20 20" width="20" xmlns="http://www.w3.org/2000/svg"><path d="m1.99219 10.3516c0 .2448.09375.4583.28125.6406l5.14844 5.1406c.18229.1771.38802.2656.61718.2656.23959 0 .44011-.0781.60156-.2343.16146-.1563.24219-.3516.24219-.586 0-.1198-.02343-.2317-.07031-.3359s-.10938-.1953-.1875-.2734l-1.75-1.7657-2.90625-2.6562-.28125.5 2.71094.1562h9.49216c.2604 0 .4688-.0781.625-.2343.1615-.1615.2422-.3672.2422-.6172 0-.2552-.0807-.46098-.2422-.61722-.1562-.16146-.3646-.24219-.625-.24219h-9.49216l-2.71094.16406.28125.50785 2.90625-2.6641 1.75-1.77344c.07812-.07812.14062-.16666.1875-.26562.04688-.10417.07031-.21875.07031-.34375 0-.23438-.08073-.42969-.24219-.58594-.16145-.15625-.36197-.23437-.60156-.23437-.11458 0-.22396.02343-.32812.07031-.10417.04687-.20313.11719-.29688.21093l-5.14062 5.13282c-.1875.18229-.28125.39586-.28125.64066z" fill="#fff"/></svg>

<svg width="20" height="20" viewBox="0 0 20 20" fill="none" xmlns="http://www.w3.org/2000/svg">
<path d="M1.99219 10.3516C1.99219 10.5964 2.08594 10.8099 2.27344 10.9922L7.42188 16.1328C7.60417 16.3099 7.8099 16.3984 8.03906 16.3984C8.27865 16.3984 8.47917 16.3203 8.64062 16.1641C8.80208 16.0078 8.88281 15.8125 8.88281 15.5781C8.88281 15.4583 8.85938 15.3464 8.8125 15.2422C8.76562 15.138 8.70312 15.0469 8.625 14.9688L6.875 13.2031L3.96875 10.5469L3.6875 11.0469L6.39844 11.2031H15.8906C16.151 11.2031 16.3594 11.125 16.5156 10.9688C16.6771 10.8073 16.7578 10.6016 16.7578 10.3516C16.7578 10.0964 16.6771 9.89062 16.5156 9.73438C16.3594 9.57292 16.151 9.49219 15.8906 9.49219H6.39844L3.6875 9.65625L3.96875 10.1641L6.875 7.5L8.625 5.72656C8.70312 5.64844 8.76562 5.5599 8.8125 5.46094C8.85938 5.35677 8.88281 5.24219 8.88281 5.11719C8.88281 4.88281 8.80208 4.6875 8.64062 4.53125C8.47917 4.375 8.27865 4.29688 8.03906 4.29688C7.92448 4.29688 7.8151 4.32031 7.71094 4.36719C7.60677 4.41406 7.50781 4.48438 7.41406 4.57812L2.27344 9.71094C2.08594 9.89323 1.99219 10.1068 1.99219 10.3516Z" fill="white"/>
</svg>
